X:570
T:Reel 570
M:4/4
K:Dmaj
L:1/8
AF|FDA,D FAdA|GFED CDEG|FDFA d2dB|Adce dBAG|FDA,D FAdA|GFED CDEG|FDFA d2dB|AGFE D2|Bc|d2cA BAFD|GFED CDBc|d2cA BAFA|Bdce dABc|dcdc BAGF|GABc dcde|fdec dcBA|BABc d2|
